public/assets/images/peopleicon.svg

<svg width="79" height="60" viewBox="0 0 79 60" fill="none" xmlns="http://www.w3.org/2000/svg">
<ellipse cx="11.4601" cy="11.4601" rx="11.4601" ry="11.4601" transform="matrix(-1 0 0 1 69.9717 7.27271)" fill="url(#paint0_radial_1005_5500)"/>
<path d="M47.6576 18.7328C47.6576 24.7273 52.5171 29.5868 58.5116 29.5868C64.5061 29.5868 69.3656 24.7273 69.3656 18.7328C69.3656 12.7383 64.5061 7.87877 58.5116 7.87877C52.5171 7.87877 47.6576 12.7383 47.6576 18.7328Z" stroke="url(#paint1_linear_1005_5500)" stroke-opacity="0.7" stroke-width="1.21212"/>
<ellipse cx="11.4601" cy="11.4601" rx="11.4601" ry="11.4601" transform="matrix(-1 0 0 1 31.5146 7.27271)" fill="url(#paint2_radial_1005_5500)"/>
<path d="M9.20059 18.7328C9.20059 24.7273 14.0601 29.5868 20.0546 29.5868C26.0491 29.5868 30.9086 24.7273 30.9086 18.7328C30.9086 12.7383 26.0491 7.87877 20.0546 7.87877C14.0601 7.87877 9.20059 12.7383 9.20059 18.7328Z" stroke="url(#paint3_linear_1005_5500)" stroke-opacity="0.7" stroke-width="1.21212"/>
<path d="M38.457 44.3304C38.457 41.8654 40.0066 39.6666 42.3279 38.8376V38.8376C52.7937 35.0998 64.2306 35.0998 74.6963 38.8376V38.8376C77.0177 39.6666 78.5672 41.8654 78.5672 44.3304V48.0993C78.5672 51.5014 75.5541 54.1146 72.1863 53.6335L71.0634 53.4731C62.7381 52.2838 54.2861 52.2838 45.9609 53.4731L44.838 53.6335C41.4702 54.1146 38.457 51.5014 38.457 48.0993V44.3304Z" fill="url(#paint4_radial_1005_5500)"/>
<path d="M77.9612 44.3304V48.0993C77.9612 51.1325 75.2747 53.4625 72.272 53.0336L71.1491 52.8731C62.767 51.6757 54.2573 51.6757 45.8752 52.8732L44.7523 53.0336C41.7496 53.4625 39.0631 51.1325 39.0631 48.0993V44.3304C39.0631 42.1216 40.4516 40.1512 42.5318 39.4083C52.8657 35.7176 64.1586 35.7176 74.4925 39.4083C76.5726 40.1512 77.9612 42.1216 77.9612 44.3304Z" stroke="url(#paint5_linear_1005_5500)" stroke-opacity="0.7" stroke-width="1.21212"/>
<path d="M0 44.3304C0 41.8654 1.54956 39.6666 3.8709 38.8376V38.8376C14.3367 35.0998 25.7736 35.0998 36.2393 38.8376V38.8376C38.5607 39.6666 40.1102 41.8654 40.1102 44.3304V48.0993C40.1102 51.5014 37.0971 54.1146 33.7292 53.6335L32.6064 53.4731C24.2811 52.2838 15.8291 52.2838 7.50385 53.4731L6.38098 53.6335C3.01315 54.1146 0 51.5014 0 48.0993V44.3304Z" fill="url(#paint6_radial_1005_5500)"/>
<path d="M39.5042 44.3304V48.0993C39.5042 51.1325 36.8177 53.4625 33.8149 53.0336L32.6921 52.8731C24.31 51.6757 15.8002 51.6757 7.41814 52.8732L6.29527 53.0336C3.29255 53.4625 0.606061 51.1325 0.606061 48.0993V44.3304C0.606061 42.1216 1.9946 40.1512 4.07474 39.4083C14.4087 35.7176 25.7015 35.7176 36.0355 39.4083C38.1156 40.1512 39.5042 42.1216 39.5042 44.3304Z" stroke="url(#paint7_linear_1005_5500)" stroke-opacity="0.7" stroke-width="1.21212"/>
<ellipse cx="14.5455" cy="14.5455" rx="14.5455" ry="14.5455" transform="matrix(-1 0 0 1 54.5454 0)" fill="url(#paint8_radial_1005_5500)"/>
<path d="M14.5454 47.0351C14.5454 43.9065 16.5122 41.1157 19.4585 40.0634V40.0634C32.7419 35.3193 47.258 35.3193 60.5415 40.0634V40.0634C63.4878 41.1157 65.4545 43.9065 65.4545 47.0351V51.8187C65.4545 56.1367 61.6301 59.4536 57.3556 58.8429L55.9304 58.6393C45.3637 57.1298 34.6362 57.1298 24.0695 58.6393L22.6443 58.8429C18.3698 59.4536 14.5454 56.1367 14.5454 51.8187V47.0351Z" fill="url(#paint9_radial_1005_5500)"/>
<path d="M64.8485 47.0351V51.8187C64.8485 55.7679 61.3507 58.8014 57.4413 58.2429L56.0161 58.0393C45.3926 56.5217 34.6073 56.5217 23.9838 58.0393L22.5586 58.2429C18.6492 58.8014 15.1515 55.7679 15.1515 51.8187V47.0351C15.1515 44.1626 16.9572 41.6003 19.6623 40.6342C32.814 35.9372 47.186 35.9372 60.3376 40.6342C63.0427 41.6003 64.8485 44.1626 64.8485 47.0351Z" stroke="url(#paint10_linear_1005_5500)" stroke-opacity="0.7" stroke-width="1.21212"/>
<defs>
<radialGradient id="paint0_radial_1005_5500" cx="0" cy="0" r="1" gradientUnits="userSpaceOnUse" gradientTransform="translate(29.6764 18.9217) rotate(-155.477) scale(24.9596 17.8594)">
<stop stop-color="#C6B38A"/>
<stop offset="0.463601" stop-color="#F3C691"/>
<stop offset="1" stop-color="#B4703E"/>
</radialGradient>
<linearGradient id="paint1_linear_1005_5500" x1="69.3987" y1="10.7107" x2="49.3436" y2="27.9008" gradientUnits="userSpaceOnUse">
<stop stop-color="white" stop-opacity="0.15"/>
<stop offset="1" stop-color="white" stop-opacity="0.44"/>
</linearGradient>
<radialGradient id="paint2_radial_1005_5500" cx="0" cy="0" r="1" gradientUnits="userSpaceOnUse" gradientTransform="translate(29.6764 18.9217) rotate(-155.477) scale(24.9596 17.8594)">
<stop stop-color="#C6B38A"/>
<stop offset="0.463601" stop-color="#F3C691"/>
<stop offset="1" stop-color="#B4703E"/>
</radialGradient>
<linearGradient id="paint3_linear_1005_5500" x1="30.9416" y1="10.7107" x2="10.8865" y2="27.9008" gradientUnits="userSpaceOnUse">
<stop stop-color="white" stop-opacity="0.15"/>
<stop offset="1" stop-color="white" stop-opacity="0.44"/>
</linearGradient>
<radialGradient id="paint4_radial_1005_5500" cx="0" cy="0" r="1" gradientUnits="userSpaceOnUse" gradientTransform="translate(90.3907 50.7966) rotate(-166.266) scale(40.9087 17.8771)">
<stop stop-color="#C6B38A"/>
<stop offset="0.463601" stop-color="#F3C691"/>
<stop offset="1" stop-color="#B4703E"/>
</radialGradient>
<linearGradient id="paint5_linear_1005_5500" x1="39.4598" y1="36.2806" x2="56.5613" y2="63.6431" gradientUnits="userSpaceOnUse">
<stop stop-color="white" stop-opacity="0.15"/>
<stop offset="1" stop-color="white" stop-opacity="0.44"/>
</linearGradient>
<radialGradient id="paint6_radial_1005_5500" cx="0" cy="0" r="1" gradientUnits="userSpaceOnUse" gradientTransform="translate(51.9337 50.7966) rotate(-166.266) scale(40.9087 17.8771)">
<stop stop-color="#C6B38A"/>
<stop offset="0.463601" stop-color="#F3C691"/>
<stop offset="1" stop-color="#B4703E"/>
</radialGradient>
<linearGradient id="paint7_linear_1005_5500" x1="1.00275" y1="36.2806" x2="18.1043" y2="63.6431" gradientUnits="userSpaceOnUse">
<stop stop-color="white" stop-opacity="0.15"/>
<stop offset="1" stop-color="white" stop-opacity="0.44"/>
</linearGradient>
<radialGradient id="paint8_radial_1005_5500" cx="0" cy="0" r="1" gradientUnits="userSpaceOnUse" gradientTransform="translate(37.6662 24.016) rotate(-155.477) scale(31.6795 22.6677)">
<stop stop-color="#C6B38A"/>
<stop offset="0.463601" stop-color="#F3C691"/>
<stop offset="1" stop-color="#B4703E"/>
</radialGradient>
<radialGradient id="paint9_radial_1005_5500" cx="0" cy="0" r="1" gradientUnits="userSpaceOnUse" gradientTransform="translate(80.4612 55.2422) rotate(-166.266) scale(51.9226 22.6902)">
<stop stop-color="#C6B38A"/>
<stop offset="0.463601" stop-color="#F3C691"/>
<stop offset="1" stop-color="#B4703E"/>
</radialGradient>
<linearGradient id="paint10_linear_1005_5500" x1="15.8181" y1="36.8181" x2="37.524" y2="71.5474" gradientUnits="userSpaceOnUse">
<stop stop-color="white" stop-opacity="0.15"/>
<stop offset="1" stop-color="white" stop-opacity="0.44"/>
</linearGradient>
</defs>
</svg>

<svg xmlns="http://www.w3.org/2000/svg" xmlns:xlink="http://www.w3.org/1999/xlink" width="79" height="60" fill="none" xmlns:v="https://vecta.io/nano"><style><![CDATA[.B{stroke-opacity:.7}.C{stroke-width:1.212}]]></style><circle cx="11.46" cy="11.46" transform="matrix(-1 0 0 1 69.9717 7.27271)" fill="url(#A)" r="11.46"/><path d="M47.6576 18.7328C47.6576 24.7273 52.5171 29.5868 58.5116 29.5868C64.5061 29.5868 69.3656 24.7273 69.3656 18.7328C69.3656 12.7383 64.5061 7.87877 58.5116 7.87877C52.5171 7.87877 47.6576 12.7383 47.6576 18.7328Z" stroke="url(#B)" class="B C"/><circle cx="11.46" cy="11.46" transform="matrix(-1 0 0 1 31.5146 7.27271)" fill="url(#A)" r="11.46"/><path d="M9.20059 18.7328C9.20059 24.7273 14.0601 29.5868 20.0546 29.5868C26.0491 29.5868 30.9086 24.7273 30.9086 18.7328C30.9086 12.7383 26.0491 7.87877 20.0546 7.87877C14.0601 7.87877 9.20059 12.7383 9.20059 18.7328Z" stroke="url(#C)" class="B C"/><path d="M38.457 44.33c0-2.465 1.55-4.664 3.871-5.493h0a48.12 48.12 0 0 1 32.368 0h0c2.321.829 3.871 3.028 3.871 5.493v3.769c0 3.402-3.013 6.015-6.381 5.534l-1.123-.16a88.75 88.75 0 0 0-25.102 0l-1.123.16c-3.368.481-6.381-2.132-6.381-5.534V44.33z" fill="url(#D)"/><path d="M77.9612 44.3304V48.0993C77.9612 51.1325 75.2747 53.4625 72.272 53.0336L71.1491 52.8731C62.767 51.6757 54.2573 51.6757 45.8752 52.8732L44.7523 53.0336C41.7496 53.4625 39.0631 51.1325 39.0631 48.0993V44.3304C39.0631 42.1216 40.4516 40.1512 42.5318 39.4083C52.8657 35.7176 64.1586 35.7176 74.4925 39.4083C76.5726 40.1512 77.9612 42.1216 77.9612 44.3304Z" stroke="url(#E)" class="B C"/><path d="M0 44.33c0-2.465 1.55-4.664 3.871-5.493h0a48.12 48.12 0 0 1 32.368 0h0c2.321.829 3.871 3.028 3.871 5.493v3.769c0 3.402-3.013 6.015-6.381 5.534l-1.123-.16c-8.325-1.189-16.777-1.189-25.103 0l-1.123.16C3.013 54.115 0 51.501 0 48.099V44.33z" fill="url(#F)"/><path d="M39.5042 44.3304V48.0993C39.5042 51.1325 36.8177 53.4625 33.8149 53.0336L32.6921 52.8731C24.31 51.6757 15.8002 51.6757 7.41814 52.8732L6.29527 53.0336C3.29255 53.4625 0.606061 51.1325 0.606061 48.0993V44.3304C0.606061 42.1216 1.9946 40.1512 4.07474 39.4083C14.4087 35.7176 25.7015 35.7176 36.0355 39.4083C38.1156 40.1512 39.5042 42.1216 39.5042 44.3304Z" stroke="url(#G)" class="B C"/><circle cx="14.546" cy="14.546" transform="matrix(-1 0 0 1 54.5454 0)" fill="url(#H)" r="14.546"/><path d="M14.545 47.035c0-3.129 1.967-5.919 4.913-6.972h0c13.283-4.744 27.8-4.744 41.083 0h0c2.946 1.052 4.913 3.843 4.913 6.972v4.784a7.1 7.1 0 0 1-8.099 7.024l-1.425-.204c-10.567-1.509-21.294-1.509-31.861 0l-1.425.204a7.1 7.1 0 0 1-8.099-7.024v-4.784z" fill="url(#I)"/><path d="M64.8485 47.0351V51.8187C64.8485 55.7679 61.3507 58.8014 57.4413 58.2429L56.0161 58.0393C45.3926 56.5217 34.6073 56.5217 23.9838 58.0393L22.5586 58.2429C18.6492 58.8014 15.1515 55.7679 15.1515 51.8187V47.0351C15.1515 44.1626 16.9572 41.6003 19.6623 40.6342C32.814 35.9372 47.186 35.9372 60.3376 40.6342C63.0427 41.6003 64.8485 44.1626 64.8485 47.0351Z" stroke="url(#J)" class="B C"/><defs><radialGradient id="A" cx="0" cy="0" r="1" gradientTransform="translate(29.6764 18.9217) rotate(-155.477) scale(24.9596 17.8594)" xlink:href="#K"><stop stop-color="#c6b38a"/><stop offset=".464" stop-color="#f3c691"/><stop offset="1" stop-color="#b4703e"/></radialGradient><linearGradient id="B" x1="69.399" y1="10.711" x2="49.344" y2="27.901" xlink:href="#K"><stop stop-color="#fff" stop-opacity=".15"/><stop offset="1" stop-color="#fff" stop-opacity=".44"/></linearGradient><linearGradient id="C" x1="30.942" y1="10.711" x2="10.887" y2="27.901" xlink:href="#K"><stop stop-color="#fff" stop-opacity=".15"/><stop offset="1" stop-color="#fff" stop-opacity=".44"/></linearGradient><radialGradient id="D" cx="0" cy="0" r="1" gradientTransform="translate(90.3907 50.7966) rotate(-166.266) scale(40.9087 17.8771)" xlink:href="#K"><stop stop-color="#c6b38a"/><stop offset=".464" stop-color="#f3c691"/><stop offset="1" stop-color="#b4703e"/></radialGradient><linearGradient id="E" x1="39.46" y1="36.281" x2="56.561" y2="63.643" xlink:href="#K"><stop stop-color="#fff" stop-opacity=".15"/><stop offset="1" stop-color="#fff" stop-opacity=".44"/></linearGradient><radialGradient id="F" cx="0" cy="0" r="1" gradientTransform="translate(51.9337 50.7966) rotate(-166.266) scale(40.9087 17.8771)" xlink:href="#K"><stop stop-color="#c6b38a"/><stop offset=".464" stop-color="#f3c691"/><stop offset="1" stop-color="#b4703e"/></radialGradient><linearGradient id="G" x1="1.003" y1="36.281" x2="18.104" y2="63.643" xlink:href="#K"><stop stop-color="#fff" stop-opacity=".15"/><stop offset="1" stop-color="#fff" stop-opacity=".44"/></linearGradient><radialGradient id="H" cx="0" cy="0" r="1" gradientTransform="translate(37.6662 24.016) rotate(-155.477) scale(31.6795 22.6677)" xlink:href="#K"><stop stop-color="#c6b38a"/><stop offset=".464" stop-color="#f3c691"/><stop offset="1" stop-color="#b4703e"/></radialGradient><radialGradient id="I" cx="0" cy="0" r="1" gradientTransform="translate(80.4612 55.2422) rotate(-166.266) scale(51.9226 22.6902)" xlink:href="#K"><stop stop-color="#c6b38a"/><stop offset=".464" stop-color="#f3c691"/><stop offset="1" stop-color="#b4703e"/></radialGradient><linearGradient id="J" x1="15.818" y1="36.818" x2="37.524" y2="71.547" xlink:href="#K"><stop stop-color="#fff" stop-opacity=".15"/><stop offset="1" stop-color="#fff" stop-opacity=".44"/></linearGradient><linearGradient id="K" gradientUnits="userSpaceOnUse"/></defs></svg>
